icon/pk/prison.svg

<svg viewBox="0 0 48 48" fill="none" xmlns="http://www.w3.org/2000/svg" height="1em" width="1em">
  <path d="M6 4V12C6 12.5523 6.44772 13 7 13H19C19.5523 13 20 12.5523 20 12V4" stroke="black" stroke-width="4" stroke-linecap="round" stroke-linejoin="round"/>
  <path d="M6 7H20" stroke="black" stroke-width="4" stroke-linecap="round" stroke-linejoin="round"/>
  <path d="M28 22H6V44H28" stroke="black" stroke-width="4" stroke-linecap="round" stroke-linejoin="round"/>
  <path d="M16 44V13" stroke="black" stroke-width="4" stroke-linecap="round" stroke-linejoin="round"/>
  <path d="M10 22V13" stroke="black" stroke-width="4" stroke-linecap="round" stroke-linejoin="round"/>
  <path d="M13 4V7" stroke="black" stroke-width="4" stroke-linecap="round" stroke-linejoin="round"/>
  <path d="M27 13V16" stroke="black" stroke-width="4" stroke-linecap="round" stroke-linejoin="round"/>
  <path d="M35 13V16" stroke="black" stroke-width="4" stroke-linecap="round" stroke-linejoin="round"/>
  <path d="M43 13V16" stroke="black" stroke-width="4" stroke-linecap="round" stroke-linejoin="round"/>
  <path d="M43 44V16H27V44H43Z" fill="#2F88FF" stroke="black" stroke-width="4" stroke-linecap="round" stroke-linejoin="round"/>
  <path d="M35 34V44" stroke="white" stroke-width="4" stroke-linecap="round"/>
  <path d="M31 44L39 44" stroke="black" stroke-width="4" stroke-linecap="round"/>
</svg>

<svg width="48" height="48" fill="none" xmlns="http://www.w3.org/2000/svg"><path d="M6 4v8a1 1 0 0 0 1 1h12a1 1 0 0 0 1-1V4M6 7h14M28 22H6v22h22M16 44V13M10 22v-9M13 4v3M27 13v3M35 13v3M43 13v3" stroke="#000" stroke-width="4" stroke-linecap="round" stroke-linejoin="round"/><path d="M43 44V16H27v28h16Z" fill="#2F88FF" stroke="#000" stroke-width="4" stroke-linecap="round" stroke-linejoin="round"/><path d="M35 34v10" stroke="#fff" stroke-width="4" stroke-linecap="round"/><path d="M31 44h8" stroke="#000" stroke-width="4" stroke-linecap="round"/></svg>
